apps/www/public/images/logos/frameworks/nuxtjs.svg

<svg width="61" height="61" viewBox="0 0 61 61" fill="none" xmlns="http://www.w3.org/2000/svg">
<path d="M32.5784 45.4741H50.2199C50.7802 45.4741 51.3307 45.3325 51.8159 45.0634C52.3012 44.7943 52.7041 44.4072 52.9842 43.9409C53.2642 43.4748 53.4115 42.946 53.4113 42.4078C53.4111 41.8696 53.2633 41.3409 52.9828 40.875L41.1352 21.164C40.8552 20.6979 40.4524 20.3109 39.9672 20.0418C39.4821 19.7727 38.9317 19.631 38.3715 19.631C37.8113 19.631 37.261 19.7727 36.7758 20.0418C36.2906 20.3109 35.8878 20.6979 35.6078 21.164L32.5784 26.2073L26.6555 16.3452C26.3753 15.8792 25.9723 15.4922 25.487 15.2232C25.0017 14.9541 24.4513 14.8125 23.8909 14.8125C23.3306 14.8125 22.7802 14.9541 22.2949 15.2232C21.8096 15.4922 21.4066 15.8792 21.1263 16.3452L6.38358 40.875C6.10311 41.3409 5.95532 41.8696 5.95508 42.4078C5.95483 42.946 6.10214 43.4748 6.38219 43.9409C6.66224 44.4072 7.06515 44.7943 7.5504 45.0634C8.03564 45.3325 8.58612 45.4741 9.14645 45.4741H20.2203C24.6079 45.4741 27.8436 43.6229 30.07 40.0113L38.3706 26.2073L47.0599 40.6619H35.4754L32.5784 45.4741ZM20.0398 40.657L12.3116 40.6553L23.8961 21.3836L29.6763 31.0195L25.8062 37.4599C24.3276 39.8032 22.6479 40.657 20.0398 40.657Z" fill="#7E7E7E"/>
</svg>

<svg xmlns="http://www.w3.org/2000/svg" width="61" height="61" fill="none" viewBox="0 0 61 61"><path fill="#7e7e7e" d="M32.578 45.474H50.22c.56 0 1.11-.141 1.596-.41a3.13 3.13 0 0 0 1.168-1.123c.28-.466.427-.995.427-1.533s-.148-1.067-.428-1.533L41.135 21.164a3.13 3.13 0 0 0-1.168-1.122 3.3 3.3 0 0 0-1.596-.411c-.56 0-1.11.142-1.595.41a3.13 3.13 0 0 0-1.168 1.123l-3.03 5.043-5.923-9.862a3.13 3.13 0 0 0-1.168-1.122 3.3 3.3 0 0 0-1.596-.41c-.56 0-1.11.141-1.596.41a3.13 3.13 0 0 0-1.169 1.122L6.384 40.875c-.28.466-.429.995-.429 1.533s.147 1.067.427 1.533.683.853 1.168 1.122c.486.27 1.036.411 1.596.411H20.22c4.388 0 7.624-1.851 9.85-5.463l8.3-13.804 8.69 14.455H35.475zM20.04 40.657l-7.728-.002 11.584-19.271 5.78 9.636-3.87 6.44c-1.478 2.343-3.158 3.197-5.766 3.197"/></svg>
